X:1
T:Title
%%score ( 1 2 ) { 3 | 4 }
L:1/8
Q:1/4=100
M:4/4
K:Ab
V:1 treble nm="Grand Piano, Soprano"
V:2 treble 
V:3 bass nm="Choir Pad, Pretoria, Henry L. Gilmour"
V:4 bass 
V:1
 [Ec]2 [Ec]>[DB] [CA]2 [CE]2 | [DF][FA][EG][DF] [CE]4 | [Gd]2 [Fd][Ec] [EB]2 [CA]2 | %3
w: By~Henry~Lake~Gilmour,~1912 * * * *|||
 [=DG][DA][DB][Dc] [EB]4 | [Ec]2 [Ec]>[DB] [CA]2 [CA]2 | [CA][FA][FB][Fc] [Fd]4 | %6
w: |||
 [_CF]2 [CG][CA] [=CE][EA][FA][=EB] | [Ec]2 [EB]2 [EA]4 | [Gd]2 [Gd]>[Gd] [Gd]3 [Gd] | %9
w: |||
 [Ec][EB][EA][Ac] [Ae]4 | d-[Ad] [Bd]>[Fd] [Gd]3 [Gd] | [Ac][EA][EG][EA] [GB]4 | %12
w: |||
 E2 [EA]>[EB] [Ac]3 [Ac] | [Ac][Ac][EB][Ac] [Ad]4 | [A=d]2 [Ad][Ad] [Ae][E_d][Ec][FB] | %15
w: |||
 [EA]2 [EG]2 [EA]4- | [EA]4 z4 |] %17
w: ||
V:2
 x8 | x8 | x8 | x8 | x8 | x8 | x8 | x8 | x8 | x8 | .G2 z2 z4 | x8 | x8 | x8 | x8 | x8 | x8 |] %17
V:3
 A,2 E,>E, E,2 A,2 | A,A,A,A, A,4 | B,2 B,B, G,2 A,2 | A,A,A,A, G,4 | A,2 E,>E, E,2 E,2 | %5
 A,CB,=A, B,4 | A,2 A,A, A,A,A,A, | A,2 G,D C4 | B,2 B,>B, B,3 B, | A,[K:treble]DCE C4 | %10
 B,2 E>E E3 E | EEDC D4 | C2 C>D E3 E | EEEE D4 | _C2 CC =CB,A,[K:treble]D | C2 B,2 C4- | C4 z4 |] %17
V:4
 A,,2 A,,>A,, A,,2 A,,2 | D,D,D,D, A,,4 | E,2 E,E, E,2 F,2 | B,,B,,B,,B,, E,4 | %4
 A,,2 A,,>A,, A,,2 A,,2 | F,F,D,C, B,,4 | =D,2 D,D, E,C,D,_D, | E,2 E,2 A,,4 | E,F, G,>A, z2 z C, | %9
 z A,A,A, A,4 | E,F, G,>A, B,3 E, | A,CB,A, E,4 | A,2 A,>A, A,3 A, | A,A,G,_G, F,4 | %14
 =E,2 E,E, _E,E, z D, | E,2 E,2 A,,4- | A,,4 z4 |] %17

